X:1
M:4/4
K:G
dc|BgdB AecA|GdBG FcAF|GDEF GABc|^cded fed=c|
dcdB cABc|ecBA dfdf|edcB cAGF|EDFA BGFD||